X:025
T:Andantino TS.025
M:2/4
L:1/16
Q:1/4=80
S:Thomas Sands’ MS,1810,Lincolnshire
R:air
C:Prefixed as ‘No.13′ in MS
O:England;Lincolnshire
Z:vmp.Ruairidh Greig, 2011
K:Dm
A2|d4e4|(f2ef) d2e2|f2g2a2b2|d4^c2z “_f” A|
d>^cd>f e>de>”^f in MS”g|f>ef>a g>fg>b|a2d2 (fed^c)|(^c4d2):|
|:(f/e/f/g/)|a4b4|g2(gf) e2(d^c)|(d2ef) gfed|(d4^c2) z “_f”A|
d>Af>d e>Ag>e|f>da>f [b2d2] z b|a2d2 fed^c|d2A2D2 AG|
“Bass Solo”FEFD GABA &F2z2 G2z2|GFEC FGAF &G2z2 F2z2|BcBA GAGF|E2EE E2z “_Tuto”A|
“^sq’s in MS”d3A f3d|gfed “^sq’s in MS”^c2A2|defg fed^c|d2A2D2:|]

